T: Teelin, The
M: 4/4
L: 1/8
K: Gmaj
B2 D2 G3 A | B2 A2 A2 (3ABc | d2 d2 ^c2 d2 | e2 d2 BdBA |B2 D2 G3 A | B2 A2 A3 d | e2 ^d2 e2 F2 |1 A2 G2 Ge :|2  A2 G2 G3 ||B2 d2 b3 a | g2 B2 d2 (3efg | f2 e2 ABcd | e2 d2 B3 A  |       GABd b3 a | g2 B2 d3 g | f2 e2 f2 F2 |1 A2 G2 G3 :|2 A2 G2 G2 ||One simple option for taking it home ~ | A2 G2 G4 ||| B2 d2 b3 a | ~ | B2 d2 (3bbb b>a | ~ | B2 d2 b>c'b>a | ~ | B2 d2 b>^ab>=a  || G>AB>d b3 a | ~ | G>AB>d (3bbb b>a | ~ | G>AB>d b>c'b>a | ~ |G>AB>d b>^ab>=a |
